icon/pk/reverse-lens.svg

<svg viewBox="0 0 48 48" fill="none" xmlns="http://www.w3.org/2000/svg" height="1em" width="1em">
  <path d="M13 25V10H19L21 7H27L29 10H35V25H13Z" fill="#2F88FF" stroke="black" stroke-width="4" stroke-linecap="round" stroke-linejoin="round"/>
  <path d="M20 35L24 39L20 43" stroke="black" stroke-width="4" stroke-linecap="round" stroke-linejoin="round"/>
  <path d="M32 38.1679C39.0636 36.6248 45 33.1006 45 29C45 26.7483 43.5116 24.6705 41 22.999M24 39C12.9543 39 3 34.5228 3 29C3 26.7483 4.48836 24.6705 7 22.999" stroke="black" stroke-width="4" stroke-linecap="round" stroke-linejoin="round"/>
  <path d="M24 20C25.6569 20 27 18.6569 27 17C27 15.3431 25.6569 14 24 14C22.3431 14 21 15.3431 21 17C21 18.6569 22.3431 20 24 20Z" fill="#43CCF8" stroke="white" stroke-width="4" stroke-miterlimit="10"/>
</svg>

<svg width="48" height="48" fill="none" xmlns="http://www.w3.org/2000/svg"><path d="M13 25V10h6l2-3h6l2 3h6v15H13Z" fill="#2F88FF" stroke="#000" stroke-width="4" stroke-linecap="round" stroke-linejoin="round"/><path d="m20 35 4 4-4 4" stroke="#000" stroke-width="4" stroke-linecap="round" stroke-linejoin="round"/><path d="M32 38.168C39.064 36.625 45 33.1 45 29c0-2.252-1.488-4.33-4-6.001M24 39C12.954 39 3 34.523 3 29c0-2.252 1.488-4.33 4-6.001" stroke="#000" stroke-width="4" stroke-linecap="round" stroke-linejoin="round"/><path d="M24 20a3 3 0 1 0 0-6 3 3 0 0 0 0 6Z" fill="#43CCF8" stroke="#fff" stroke-width="4" stroke-miterlimit="10"/></svg>
